X:1227
T:Bath Waltz. JC.099
M:3/8
L:1/8
Q:30
S:John Clare,Poet,Helpston. (1793-1864)
R:Waltz
O:England
A:Northamptonshire
Z:Chris Partington.
K:Bb
"Key F in MS2Fd0B|Fd-B|{e}e2c/B/|Ac/A/F|FdB|FdB|{e}e2c/A/|B3:|!
|:ff/g/a/b/|f2d|c/B/c/d/e/f/|dBB|ff/g/a/b/|f2d|ecA|B3:|]
W:MS includes Dance Instructions.


